X: 20112
T: MAY WE NE'ER WANT A FRIEND NOR A BOTTLE TO GIVE HIM.
C: John Davy.
%R: air, reel
B: W. Hamilton "Universal Tune-Book" Vol. 2 Glasgow 1846 p.11 #2
S: http://s3-eu-west-1.amazonaws.com/itma.dl.printmaterial/book_pdfs/hamiltonvol2web.pdf
Z: 2016 John Chambers <jc:trillian.mit.edu>
M: C
L: 1/8
K: E
% - - - - - - - - - - - - - - - - - - - - - - - - -
G>A |\
Bege fdzB | ecBA {A}G2FE |\
A2c>B FBzD | E>FGA {G}F2G>A |\
Begb afed | e2dc f2ff |
f2ff dBzc | F2G^A B2B>B |\
c2=dd {d}c2BA | AGF^E F2G>G |\
A2B>B c2^d>d | e2B>G GFBB |\
cfzc BezB |
A2F>F G2B>B |\
e2d>e c2B>A | GBzE DFzB |\
cfzc Beze | defg Ha2B>B |\
g2e>B c2de | BB2A GEz |]
% - - - - - - - - - - - - - - - - - - - - - - - - -
%%begintext align
%% Sung by Mr. Incledon in "Family Quarrels," words by Thomas Dibdin.
%%endtext
%%sep 1 1 300

%%sep 1 1 500
%%sep 1 1 500

